X:1
T:So Handy
M:6/8
L:1/8
K:F
 A| A2 D F2 G|A-G A F2 c| AAA F2 G| A c4 c|c-d c B2 B| G2 G E2 F| GGG E2 F|\
 G2 A3||
